!!!!SEGMENT: pl-wtm--r-1427--006_stefani-jozef--no-19-sanctus.krn
!!!cenid: 18xx:2442
!!!COM: Stefani, Józef
!!!COM-rismid: pe30024097
!!!CDT: 1800/04/16-1876/03/19
!!!CNT: Polish
!!!OTL: No. 19 – Sanctus
!!!PDT:
!!!AGN: Sacred; Mass
!!!SMS-siglum: PL-Wtm
!!!SMS-shelfmark: R 1427
!!!SMS-shelfwork: 001-006 M
!!!SMS-variant:
!!!SMS-altvar:
!!!NIFC-rismid: 1001116126
!!!URL-scan: http://repozytorium.nifc.pl/skany/pl-wtm-nut--r1427--r1428
!!!ONB-nifc: UWAGA: części Mszy: 1. Kyrie, 2. Gloria, 3. Graduale, 4. Credo, 5. Offertorium. 6. Sanctus, 7. Benedictus, 8. Agnus Dei, 9. Dona nobis
!!!OMD: Adagio.
**kern	**kern	**kern	**text	**text	**text	**text	**dynam
*part2	*part2	*part1	*part1	*part1	*part1	*part1	*part1
*staff3	*staff2	*staff1	*staff1	*staff1	*staff1	*staff1	*
*I"Organo	*I"Organo	*I"Głos	*	*	*	*	*
*>[A,B,B,B,B]	*>[A,B,B,B,B]	*>[A,B,B,B,B]	*>[A,B,B,B,B]	*>[A,B,B,B,B]	*>[A,B,B,B,B]	*>[A,B,B,B,B]	*>[A,B,B,B,B]
*>A	*>A	*>A	*>A	*>A	*>A	*>A	*>A
*clefF4	*clefG2	*clefG2	*	*	*	*	*
*k[]	*k[]	*k[]	*	*	*	*	*
*M2/2	*M2/2	*M2/2	*	*	*	*	*
*met(c)	*met(c)	*met(c)	*	*	*	*	*
*all\right	*	*all\right	*	*	*	*	*
4G\	4b-X 4g 4e 4c/	4r	.	.	.	.	.
=1	=1	=1	=1	=1	=1	=1	=1
4F\	4a 4f/	1r	.	.	.	.	.
4E\	4g/	.	.	.	.	.	.
4F\	4a/	.	.	.	.	.	.
4D\	4f 4d/	.	.	.	.	.	.
=2	=2	=2	=2	=2	=2	=2	=2
*	*^	*	*	*	*	*	*
2C/	2g 2e/	2ryy	1r	.	.	.	.	.
*	*	*2\right	*	*	*	*	*	*
4F\	4d/	2c\	.	.	.	.	.	.
4F#X\	4d#X/	.	.	.	.	.	.	.
=3	=3	=3	=3	=3	=3	=3	=3	=3
*2\right	*	*	*	*	*	*	*	*
2G\	2e/	2.c\	1r	.	.	.	.	.
4E\	4g/	.	.	.	.	.	.	.
4C\	4cc/	4g 4e\	.	.	.	.	.	.
!!LO:LB:g=original
=4	=4	=4	=4	=4	=4	=4	=4	=4
2GG/	(4cc/	2.f 2.d\	2r	.	.	.	.	.
.	8b/L	.	.	.	.	.	.	.
.	8a/J)	.	.	.	.	.	.	.
4G\	4b/	.	4r	.	.	.	.	.
*	*v	*v	*	*	*	*	*	*
=!|:	=!|:	=!|:	=!|:	=!|:	=!|:	=!|:	=!|:
*>B	*>B	*>B	*>B	*>B	*>B	*>B	*>B
4G 4GG\	4b 4g 4f 4d/	4g/	1.) U-	2.) Za-	3.) Po-	4.) Pan	f
=5	=5	=5	=5	=5	=5	=5	=5
*	*	*2\right	*	*	*	*	*
[2.G [>2.C\	2cc 2g 2e/	2cc\	-pad-	-brzmij-	-wta-	wiecz-	.
.	4g 4e/	4g/	-nij	-cie	-rzaj	-ny	.
8.G]L 8.C\]	8.ccL 8.g 8.e/	8.cc\	na	z na-	ludz-	zaw-	.
16GJk 16GG\	16ddJk 16b 16g/	16dd\	ko-	-mi	-ki	-sze	.
=6	=6	=6	=6	=6	=6	=6	=6
*	*^	*	*	*	*	*	*
2.G 2.C\	2ee 2cc/	2g\	2ee\	-la-	Nie-	ro-	wszę-	.
.	4cc/	4g 4e\	4cc\	-na	-ba	-dzie	-dzie	.
4r	4ccT\	4ryy	4r	.	.	.	.	.
.	(<16qqb/LL	.	.	.	.	.	.	.
.	16qqcc/JJ)	.	.	.	.	.	.	.
*	*v	*v	*	*	*	*	*	*
!!LO:LB:g=original
=7	=7	=7	=7	=7	=7	=7	=7
!	!	!	!	!	!	!	!LO:DY:rj
2A 2AA/	2ff 2cc 2f/	4.ff\	Lu-	Bóg	Bo-	ku	p
.	.	8ff\	-du	nasz	-giem	nam	.
4G 4GG/	4ee 4cc 4g/	4ee\	czcią	nie-	prze-	łas-	.
4F#X 4FF#X/	4dd#X 4cc 4a/	4dd#X\	prze-	-po-	-ni-	-ką	.
=8	=8	=8	=8	=8	=8	=8	=8
*	*^	*	*	*	*	*	*
2G 2GG/	2ee 2cc/	1g	2ee\	-ię-	-ię-	-knię-	zdię-	.
2E 2EE/	4cc/	.	4cc\	-ty	-ty	-ty	-ty	.
.	8cc/L	.	(8cc\L	u-	W po-	Na-	Niech	.
.	8b/J	.	8b\J)	.	.	.	.	.
*	*v	*v	*	*	*	*	*	*
=9	=9	=9	=9	=9	=9	=9	=9
2F 2FF/	2a 2f/	2a/	-wiel-	-sta-	-wscho-	wiecz-	.
2E 2EE/	2cc 2g/	2cc\	-biaj	-ci	-dzie	-nie	.
!!LO:LB:g=original
=10	=10	=10	=10	=10	=10	=10	=10
!	!	!	!	!	!	!	!LO:DY:rj
4D 4DD/	2ff 2a 2f/	(2ff\	Twe-	przy-	i	wiel-	f
2D 2DD/	.	.	.	.	.	.	.
.	4a 4f/	4a/)	.	.	.	.	.
4D-X 4DD-X/	4b 4g 4f/	4b\	-go	-szedł	za-	-bion	.
=11	=11	=11	=11	=11	=11	=11	=11
2..C 2..CC/	2..cc 2..g 2..e/	(2..cc\	Pa-	chle-	-cho-	bę-	.
8GG/	8dd 8b 8g/	8dd\)	.	.	.	.	.
=12	=12	=12	=12	=12	=12	=12	=12
4GG/	2dd 2b [2g/	2dd\	-na	-ba	-dzie	-dzie.	.
[4G\	.	.	.	.	.	.	.
8G\L]	8g/L]	2r	.	.	.	.	.
16F#X\L	16a/L	.	.	.	.	.	.
16Fn\JJ	16b/JJ	.	.	.	.	.	.
8E\L	8cc/L	.	.	.	.	.	.
8D\J	8dd/J	.	.	.	.	.	.
=13	=13	=13	=13	=13	=13	=13	=13
*	*^	*	*	*	*	*	*
!	!	!	!	!	!	!	!	!LO:DY:rj
2C/	2ee 2cc/	1g	2ee\	Świę-	.	.	.	p
2E\	2cc/	.	2cc\	-ty!	.	.	.	.
!!LO:PB:g=original
=14	=14	=14	=14	=14	=14	=14	=14	=14
2F\	2a/	1f	2a/	Świę-	.	.	.	.
2D\	2dd/	.	2dd\	-ty!	.	.	.	.
*	*v	*v	*	*	*	*	*	*
=15	=15	=15	=15	=15	=15	=15	=15
4G 4GG\	4r	(>8g/L	Świę-	.	.	.	f
.	.	8cc/J	.	.	.	.	.
4r	4cc 4g 4e/	2ee\	.	.	.	.	.
4G 4GG\	4r	.	.	.	.	.	.
4r	4b 4g 4f 4d/	4dd\)	.	.	.	.	.
=16	=16	=16	=16	=16	=16	=16	=16
4C/	4cc 4g 4e/	4cc\	-ty!	.	.	.	.
*clefG2	*	*	*	*	*	*	*
4g/	(>4gg 4b\	4r	.	.	.	.	.
4f#X/	4aa 4cc\	2r	.	.	.	.	.
4fn/	4bb 4dd\	.	.	.	.	.	.
=17	=17	=17	=17	=17	=17	=17	=17
*	*^	*	*	*	*	*	*
1e	2ccc/)	[1cc	1r	.	.	.	.	.
.	2gg/	.	.	.	.	.	.	.
!!LO:LB:g=original
=18	=18	=18	=18	=18	=18	=18	=18	=18
1f	2ccc 2aa/	1cc]	1r	.	.	.	.	.
.	2aa 2ff/	.	.	.	.	.	.	.
=19	=19	=19	=19	=19	=19	=19	=19	=19
[>2g/	4gg/	2ee 2cc\	1r	.	.	.	.	.
.	2ccc/	.	.	.	.	.	.	.
2g] 2G/	.	2ff 2dd\	.	.	.	.	.	.
.	4bb/	.	.	.	.	.	.	.
=20	=20	=20	=20	=20	=20	=20	=20	=20
!LO:TX:a:i:t=Seque\nBenedictus.	!	!	!	!	!	!	!	!
2.g 2.c/	2.ccc/	2.ee 2.cc\	2r	.	.	.	.	.
.	.	.	4r	.	.	.	.	.
*	*v	*v	*	*	*	*	*	*
=:|!	=:|!	=:|!	=:|!	=:|!	=:|!	=:|!	=:|!
*-	*-	*-	*-	*-	*-	*-	*-
!!!system-decoration: s1{(s2,s3)}
!!!RDF**kern: > = above
!!!RDF**kern: < = below
!!!ENC: Marta Lawrence
!!!END: 2021-06-27
!!!ENC: Andrzej Gręziak
!!!END: 2021-06-21
